X: 38880
T: Sunny Corner
R: polka
M: 2/4
K: Gmajor
DD GG|A/B/c/A/ BB/c/|dG FG|AF G2:|
d/c/B/c/ AA|D/E/F/G/ A>A|DE FG|A/B/c/A/ dd/c/|
B/A/G AA|D/E/F/G/ A2|D/E/F/G/ A/G/F/G/|AF G2||

